X:1
T:French Suite IV (A = 415 Hz)
T:BWV 815
T:J.S. Bach
%%score { ( 1 4 5 6 ) | ( 2 3 7 8 ) }
L:1/8
M:4/4
K:Eb
V:1 treble nm="Harp"
V:4 treble 
V:5 treble 
V:6 treble 
V:2 bass 
V:3 bass 
V:7 bass 
V:8 bass 
V:1
"^Allemande" B,/ | B,/F,/G,/B,/ z/ G,/B,/_D/ C/G,/A,/C/ z/ A,/C/E/ | %2
 D/G,/A,/D/ z/ A,/D/F/ F/D/E/G/ B,/D/E/G/ | G/E/F/A/ C/E/F/A/ D/c/B/D/ E/B/G/E/ | %4
 C/B/A/C/ D/A/F/D/ B,/A/G/B,/ C/G/E/C/ | A,/G/F/A,/ B,/F/D/B,/ G,/B,/D/F/ E/G/B/_d/ | %6
 c2- c/c/B/A/ G/F/G/B/ e2- | e/e/d/c/ d2 d>G c2- | c/c/B/A/ B2- B/E/G/B/ A/c/e/g/ | %9
 f2 f2- f/c/d/f/ e2- | e/e/d/B/ G/c=A/ B2 B3/2 B,/ | %11
 B,/F,/G,/B,/ z/ G,/B,/_D/ C/G,/A,/C/ z/ A,/C/E/ | D/G,/A,/D/ z/ A,/D/F/ F/D/E/G/ B,/D/E/G/ | %13
 G/E/F/A/ C/E/F/A/ D/c/B/D/ E/B/G/E/ | C/B/A/C/ D/A/F/D/ B,/A/G/B,/ C/G/E/C/ | %15
 A,/G/F/A,/ B,/F/D/B,/ G,/B,/D/F/ E/G/B/_d/ | c2- c/c/B/A/ G/F/G/B/ e2- | e/e/d/c/ d2 d>G c2- | %18
 c/c/B/A/ B2- B/E/G/B/ A/c/e/g/ | f2 f2- f/c/d/f/ e2- | e/e/d/B/ G/c=A/ B2 B3/2 f/ | %21
 f/c/d/f/ z/ d/f/a/ g/d/e/g/ z/ e/g/b/ | =a/c/e/a/ z/ e/a/c'/ c'/a/b/f/ e/c/d/f/ | %23
 =f>=B d/f/e/d/ e4- | e2- e/e/d/f/ z2 g2- | g/b/_d/c/ B/g/=e/c/ a/f/=d/c/ =B/f/d/B/ | %26
 G/=B/c/e/- e/d/c/B/ c4 | z/ D/E/G/ B/F/G/B/ _d/G/A/c/- c2- | c/=B/c/=e/ g/_B/c/G/ A/=E/F/A/- A2- | %29
 A/B,/F/A/ G/D/E/B,/ A,/C/E/G/ F/B/D/C/ | B,/D/E/G/ C/FD/ E2- E3/2 f/ | %31
 f/c/d/f/ z/ d/f/a/ g/d/e/g/ z/ e/g/b/ | =a/c/e/a/ z/ e/a/c'/ c'/a/b/f/ e/c/d/f/ | %33
 =f>=B d/f/e/d/ e4- | e2- e/e/d/f/ z2 g2- | g/b/_d/c/ B/g/=e/c/ a/f/=d/c/ =B/f/d/B/ | %36
 G/=B/c/e/- e/d/c/B/ c4 | z/ D/E/G/ B/F/G/B/ _d/G/A/c/- c2- | c/=B/c/=e/ g/_B/c/G/ A/=E/F/A/- A2- | %39
 A/B,/F/A/ G/D/E/B,/ A,/C/E/G/ F/B/D/C/ | B,/D/E/G/ C/FD/ !fermata!E2- E3/2 z/ | %41
[M:3/4]"^Courante" z4 z B, | B,2- (3B,CD (3EFG | (3GEF d2- (3def | (3edc (3BAG (3FGA | %45
 (3AFG (3EGB (3egf | g2- (3gag (3fed | (3fcd (3efg (3BG=A | f2- (3fgf (3edc | (3dBc (3def (3AFG | %50
 (3GBA (3Bcd (3cAB | (3ecd (3efg (3ede | (3aef (3abc' (3ecd | (3d=AB (3BGA (12:8:5(1:1:4B/A/B/A/B | %54
 B2- (3BDE (3FGA | (3GDE (3CB=A (3BFG | (3Edc (3def (3FB=A | (3BFD B,2- B, B, | B,2- (3B,CD (3EFG | %59
 (3GEF d2- (3def | (3edc (3BAG (3FGA | (3AFG (3EGB (3egf | g2- (3gag (3fed | (3fcd (3efg (3BG=A | %64
 f2- (3fgf (3edc | (3dBc (3def (3AFG | (3GBA (3Bcd (3cAB | (3ecd (3efg (3ede | (3aef (3abc' (3ecd | %69
 (3d=AB (3BGA (12:8:5(1:1:4B/A/B/A/B | B2- (3BDE (3FGA | (3GDE (3CB=A (3BFG | (3Edc (3def (3FB=A | %73
 (3BFD B,2- B, d | d2- (3dfe (3dcB | (3afg (6:4:6c/=B/c/B/c/B/ (6:4:4(1:1:2c/B/cd | %76
 (3cBA (3GFE (3DFG | (3FDE (3CEG (3ced | e2- (3efe (3_dcB | (3cAB (3cGA (3=EFC | %80
 (3_D=EG (3BAG (3_dcB | (3AFG (3ABc (3_dec | (3_dfc (3fga (3gef | (3bgf (3=efg (3_dBc | %84
 (3c=EF (3_dcB (3ABA | F2- (3FAG (3ABc | (3DEF (3B,DF (3AGF | (3GAB (3EGB (3_dcB | %88
 (3cf=e (3fga (3cd_e | (3ecd (3agf (3c'ba | (3gde (3Bc_d (6:4:4(1:1:2G/A/B_D | %91
 (3C[I:staff +1]G,A, (3F,[I:staff -1]ED (3E[I:staff +1]G,A, | (3A,[I:staff -1]GF (3GAB (3B,ED | %93
 (3E[I:staff +1]B,G, E,2- E,[I:staff -1] d | d2- (3dfe (3dcB | %95
 (3afg (6:4:6c/=B/c/B/c/B/ (6:4:4(1:1:2c/B/cd | (3cBA (3GFE (3DFG | (3FDE (3CEG (3ced | %98
 e2- (3efe (3_dcB | (3cAB (3cGA (3=EFC | (3_D=EG (3BAG (3_dcB | (3AFG (3ABc (3_dec | %102
 (3_dfc (3fga (3gef | (3bgf (3=efg (3_dBc | (3c=EF (3_dcB (3ABA | F2- (3FAG (3ABc | %106
 (3DEF (3B,DF (3AGF | (3GAB (3EGB (3_dcB | (3cf=e (3fga (3cd_e | (3ecd (3agf (3c'ba | %110
 (3gde (3Bc_d (6:4:4(1:1:2G/A/B_D | (3C[I:staff +1]G,A, (3F,[I:staff -1]ED (3E[I:staff +1]G,A, | %112
 (3A,[I:staff -1]GF (3GAB (3B,ED | (3E[I:staff +1]B,G, E,2- E,[I:staff -1] z |[M:3/4] z6 | %115
[Q:1/4=80]"^Sarabande" GA/B/ B/4A/4B3/2- B2 | Bc/_d/ !arpeggio!d4 | cB AG FE | DF Ac BA | %119
 G=A/B/ B/4A/4B/4A/4B/4A/4B/4A/4 B/4A/4B/4A/4 B | cd/e/ e3 z | D/E/F/B/ G2 d/c/B/=A/ | %122
 B/F/G/E/ D/E/F/B/- B2 | GA/B/ B/4A/4B3/2- B2 | Bc/_d/ !arpeggio!d4 | cB AG FE | DF Ac BA | %127
 G=A/B/ B/4A/4B/4A/4B/4A/4B/4A/4 B/4A/4B/4A/4 B | cd/e/ e3 z | D/E/F/B/ G2 d/c/B/=A/ | %130
 B/F/G/E/ D/E/F/B/- B2 | de/f/ f4 | =ef/g/ g4 | fg/a/ Ba/g/ b/a/g/f/ | g=a/b/ b4 | ag fe _dc | %136
 BA GF =E/F/G/_d/ | c/B/A/f/ =e/f/g/b/ a/f/g/e/ | f2 A/B/c/f/- f2 | aB cd ef | ga/b/ b4 | %141
 _dE FG AB | c_d/e/- e/d/c/B/ A/G/F/E/ | D/E/F- F2 z2 | f/g/a- a2 z2 | %145
 g/f/e/g/ c/d/e/f/- f/f/e/d/ | e2 G/A/B/e/- e2 | de/f/ f4 | =ef/g/ g4 | fg/a/ Ba/g/ b/a/g/f/ | %150
 g=a/b/ b4 | ag fe _dc | BA GF =E/F/G/_d/ | c/B/A/f/ =e/f/g/b/ a/f/g/e/ | f2 A/B/c/f/- f2 | %155
 aB cd ef | ga/b/ b4 | _dE FG AB | c_d/e/- e/d/c/B/ A/G/F/E/ | D/E/F- F2 z2 | f/g/a- a2 z2 | %161
 g/f/e/g/ c/d/e/f/- f/f/e/d/ | e2 G/A/B/e/- !fermata!e2 |[M:4/4] z8 | %164
"^Gavotte"[Q:1/4=120] eBcA A/4G/4A/4G/4A/4G/4A/4G/4 A/4G/4A/4G/4A | BFGE D2 CB, | AEFD GDEB | %167
 cGAf edcB | eBcA G3 E | FB=Ae d2- de | fcdB =AgfB | dcB=A B4 | %172
 eBcA A/4G/4A/4G/4A/4G/4A/4G/4 A/4G/4A/4G/4A | BFGE D2 CB, | AEFD GDEB | cGAf edcB | eBcA G3 E | %177
 FB=Ae d2- de | fcdB =AgfB | dcB=A B4 | fcdB a3 B | dfaf g4- | gdec fcd=B | e=Bc=A cBAG | %184
 gdec b3 c | _dBcb a3 g | fcd=B gdec | Gcd=B c4- | cf=eb aefd | Beda gdec | Aedf Gdce | FcB_d- d4 | %192
 cGAF DcBa | geBd e4 | fcdB a3 B | dfaf g4- | gdec fcd=B | e=Bc=A cBAG | gdec b3 c | _dBcb a3 g | %200
 fcd=B gdec | Gcd=B c4- | cf=eb aefd | Beda gdec | Aedf Gdce | FcB_d- d4 | cGAF DcBa | %207
 geBd !fermata!e4 |[M:3/4] z6 |"^Menuet" GB e_d dc | ce Be Af | %211
 A/4G/4A/4G/4A/4G/4A/4G/4 A/4G/4A/4G/4A/4G/4A/4G/4 GA/B/ | B/4A/4B/4A/4B/4A/4B/4A/4 G2 c2 | %213
 Be gf fe | =Ac ed dc | cb db e=a | b2 B4 | GB e_d dc | ce Be Af | %219
 A/4G/4A/4G/4A/4G/4A/4G/4 A/4G/4A/4G/4A/4G/4A/4G/4 GA/B/ | B/4A/4B/4A/4B/4A/4B/4A/4 G2 c2 | %221
 Be gf fe | =Ac ed dc | cb db e=a | b2 B4 | de/f/ AG GA | %226
 Af e/4d/4e/4d/4e/4d/4e/4d/4 e/4d/4e/4d/4e/4d/4e/4d/4 | ef/g/ Bc c_d | %228
 _db a/4g/4a/4g/4a/4g/4a/4g/4 a/4g/4a/4g/4a/4g/4a/4g/4 | af de ef | fA AG GB | %231
 eG A/4G/4A3/2 G/4F/4G/4F/4G/4F/4G/4F/4 | E6 | de/f/ AG GA | %234
 Af e/4d/4e/4d/4e/4d/4e/4d/4 e/4d/4e/4d/4e/4d/4e/4d/4 | ef/g/ Bc c_d | %236
 _db a/4g/4a/4g/4a/4g/4a/4g/4 a/4g/4a/4g/4a/4g/4a/4g/4 | af de ef | fA AG GB | %239
 eG A/4G/4A3/2 G/4F/4G/4F/4G/4F/4G/4F/4 | !fermata!E6 |[M:4/4] z8 | %242
"^Air" B/e/d/c/ B/A/G/F/ E2 z F | G/E/D/E/ B/F/E/F/ G/A/G/F/ E/G/F/A/ | %244
 G/c/=B/c/ e/d/c/_B/ =A/B/A/G/ F/A/G/B/ | =A/d/c/d/ f/e/d/c/ B/c/B/A/ G/B/c/d/ | %246
 e/g/f/g/ b/a/g/f/ e/g/f/g/ c'/b/=a/g/ | f/e/d/c/ d/B/c/=A/ B4 | B/e/d/c/ B/A/G/F/ E2 z F | %249
 G/E/D/E/ B/F/E/F/ G/A/G/F/ E/G/F/A/ | G/c/=B/c/ e/d/c/_B/ =A/B/A/G/ F/A/G/B/ | %251
 =A/d/c/d/ f/e/d/c/ B/c/B/A/ G/B/c/d/ | e/g/f/g/ b/a/g/f/ e/g/f/g/ c'/b/=a/g/ | %253
 f/e/d/c/ d/B/c/=A/ B4 | d/B/c/d/ e/f/g/a/ g2 z f | e/c/=B/c/ a/c/B/c/ d/c/B/=A/ G/F/=E/D/ | %256
 z/ c/=B/c/ d/c/B/c/ a/f/c z2 | z/ B/=A/B/ c/B/A/B/ g/e/B z2 | z f/e/ d/e/f- fe/d/ c/d/e- | %259
 ed/c/ g/f/e/d/ c2 z2 | z/ c/d/e/ d/c/B/=A/ f2 z A | B/F/G/=A/ B/d/c/e/ d/B/c/d/ e/g/f/a/ | %262
 g/e/f/g/ a/g/f/e/ _d/B/c/f/ e/=d/c/B/ | A/F/G/e/ d/c/B/A/ G/E/F z2 | B/e/d/c/ B/A/G/F/ E2 z F | %265
 G/c/B/A/ G/F/E/_D/ C/D/C/B,/ A,/C/B,/D/ | C/F/=E/F/ A/G/F/_E/ D/E/D/C/ B,/D/C/E/ | %267
 D/G/F/G/ B/A/G/F/ E/F/E/D/ C/E/F/G/ | A/c/B/c/ e/_d/c/B/ A/c/B/c/ f/e/=d/c/ | %269
 B/A/G/F/ G/e/F/d/ E4 | d/B/c/d/ e/f/g/a/ g2 z f | e/c/=B/c/ a/c/B/c/ d/c/B/=A/ G/F/=E/D/ | %272
 z/ c/=B/c/ d/c/B/c/ a/f/c z2 | z/ B/=A/B/ c/B/A/B/ g/e/B z2 | z f/e/ d/e/f- fe/d/ c/d/e- | %275
 ed/c/ g/f/e/d/ c2 z2 | z/ c/d/e/ d/c/B/=A/ f2 z A | B/F/G/=A/ B/d/c/e/ d/B/c/d/ e/g/f/a/ | %278
 g/e/f/g/ a/g/f/e/ _d/B/c/f/ e/=d/c/B/ | A/F/G/e/ d/c/B/A/ G/E/F z2 | B/e/d/c/ B/A/G/F/ E2 z F | %281
 G/c/B/A/ G/F/E/_D/ C/D/C/B,/ A,/C/B,/D/ | C/F/=E/F/ A/G/F/_E/ D/E/D/C/ B,/D/C/E/ | %283
 D/G/F/G/ B/A/G/F/ E/F/E/D/ C/E/F/G/ | A/c/B/c/ e/_d/c/B/ A/c/B/c/ f/e/=d/c/ | %285
 B/A/G/F/ G/e/F/d/ !fermata!E4 |[M:6/8] z6 |[Q:1/4=160]"^Gigue" z6 | z6 | e2 b e2 b | fed edc | %291
 d2 g d2 g | f2 b f2 b | edb edb | cde fga | dca dca | Bcd efg | cBg cBg | ABc def | BAf BAf | %300
 GAB Bcd | eGc eGc | e3- e2 e | dfd Bdf | a3- a2 a | gb/a/g/f/ eg/f/e/d/ | cde F2 c/4d/4e/ | %307
 dcB Bc=A | Bcd def | g/4f/4g/4f/4g/4f/4g/4f/4g/4f/4g/4f/4 g/4f/4g/4f/4g/4f/4g/4f/4g/4f/4g/4f/4 | %310
 g/4f/4g/4f/4g/4f/4g/4f/4 b f2 b | fg/f/e/d/ ef/e/d/c/ | B6 | z6 | z6 | e2 b e2 b | fed edc | %317
 d2 g d2 g | f2 b f2 b | edb edb | cde fga | dca dca | Bcd efg | cBg cBg | ABc def | BAf BAf | %326
 GAB Bcd | eGc eGc | e3- e2 e | dfd Bdf | a3- a2 a | gb/a/g/f/ eg/f/e/d/ | cde F2 c/4d/4e/ | %333
 dcB Bc=A | Bcd def | g/4f/4g/4f/4g/4f/4g/4f/4g/4f/4g/4f/4 g/4f/4g/4f/4g/4f/4g/4f/4g/4f/4g/4f/4 | %336
 g/4f/4g/4f/4g/4f/4g/4f/4 b f2 b | fg/f/e/d/ ef/e/d/c/ | B6 | F2 B, F2 B, | EFG FGA | GBA GFE | %342
 F>GF/G/ A/4G/4A/4G/4A/4G/4A/4G/4 F/G/ | AcB AGF | G>AG/=A/ B/4A/4B/4A/4B/4A/4B/4A/4 G/A/ | %345
 !arpeggio![FBdf]2 B !arpeggio![FAdf]2 B | efg fga | gde gde | cag fge | fcd fcd | =Bgf efd | %351
 e3 =e3 | f2 z e3- | efe dec | =B2 z c2 z | d2 c- cc=B | c4- ce/4d/4c/4d/4 | eBg fBa | gba gfe | %359
 _dbc dbd | cea gfa | d2 B e2 B | f2 A f2 A | G>AG/A/ B/4A/4B/4A/4B/4A/4B/4A/4 G/A/ | Be_d cBA | %365
 G>FE/F/ G/4F/4G/4F/4G/4F/4G/4F/4 E/F/ | EGB GEB | %367
 c/4B/4c/4B/4c/4B/4c/4B/4c/4B/4c/4B/4 c/4B/4c/4B/4c/4B/4c/4B/4c/4B/4c/4B/4 | c/4B/4c/4B/4Ge BGe | %369
 Bc/B/A/G/ AB/A/G/F/ | GB/A/G/F/ GB/A/G/F/ | GEG BGB | e6 | F2 B, F2 B, | EFG FGA | GBA GFE | %376
 F>GF/G/ A/4G/4A/4G/4A/4G/4A/4G/4 F/G/ | AcB AGF | G>AG/=A/ B/4A/4B/4A/4B/4A/4B/4A/4 G/A/ | %379
 !arpeggio![FBdf]2 B !arpeggio![FAdf]2 B | efg fga | gde gde | cag fge | fcd fcd | =Bgf efd | %385
 e3 =e3 | f2 z e3- | efe dec | =B2 z c2 z | d2 c- cc=B | c4- ce/4d/4c/4d/4 | eBg fBa | gba gfe | %393
 _dbc dbd | cea gfa | d2 B e2 B | f2 A f2 A | G>AG/A/ B/4A/4B/4A/4B/4A/4B/4A/4 G/A/ | Be_d cBA | %399
 G>FE/F/ G/4F/4G/4F/4G/4F/4G/4F/4 E/F/ | EGB GEB | %401
 c/4B/4c/4B/4c/4B/4c/4B/4c/4B/4c/4B/4 c/4B/4c/4B/4c/4B/4c/4B/4c/4B/4c/4B/4 | c/4B/4c/4B/4Ge BGe | %403
 Bc/B/A/G/ AB/A/G/F/ | GB/A/G/F/ GB/A/G/F/ | GEG BGB | !fermata!e6 |] %407
V:2
 z/ | z2 E,2 z2 E,2 | z2 F,2 z2 G,2 | z2 A,2- A,2 G,2 | E,2 F,2 D,2 E,2- | E,2 F,2 G,4- | %6
 G,F,-F,B,- B,4 | B,=A,=B,G, CC,E,F, | G,F,G,E, A,G,F,E, | D,F,D,B,, E,D,C,B,, | %10
 =A,,B,,E,F, z2 B,3/2 z/ | z2 E,2 z2 E,2 | z2 F,2 z2 G,2 | z2 A,2- A,2 G,2 | E,2 F,2 D,2 E,2- | %15
 E,2 F,2 G,4- | G,F,-F,B,- B,4 | B,=A,=B,G, CC,E,F, | G,F,G,E, A,G,F,E, | D,F,D,B,, E,D,C,B,, | %20
 =A,,B,,E,F, z2 B,3/2 z/ | B,4 B,4 | B,4 B,4 | =B,4 C4 | A,4 G,4- | G,B,A,G, F,E,D,C, | %26
 F,E,/F,/ G,G,, C,2- C,/G,/E,/C,/ | G,,F,,G,,E,, A,,2- A,,/A,,/G,,/F,,/ | %28
 =E,,D,,E,,C,, F,,2- F,,/G,,/F,,/_E,,/ | D,,B,,E,_D,, C,,C,D,A,, | G,,C,A,,B,, E,,2- E,,3/2 z/ | %31
 B,4 B,4 | B,4 B,4 | =B,4 C4 | A,4 G,4- | G,B,A,G, F,E,D,C, | F,E,/F,/ G,G,, C,2- C,/G,/E,/C,/ | %37
 G,,F,,G,,E,, A,,2- A,,/A,,/G,,/F,,/ | =E,,D,,E,,C,, F,,2- F,,/G,,/F,,/_E,,/ | %39
 D,,B,,E,_D,, C,,C,D,A,, | G,,C,A,,B,, !fermata!E,,2- E,,3/2 z/ |[M:3/4] z4 z z | E,6- | %43
 (3:2:2E,2 E, (3:2:2F,2 E, (3:2:2F,2 A, | (3:2:2G,2 B, (3:2:2E2 A, (3:2:2B,2 B,, | %45
 (3:2:2E,2 B,, (3:2:2G,,2 E,, (3:2:2G,,2 B,, | (3E,D,C, (3:2:2=B,,2 D, (3:2:2G,,2 B,, | %47
 (3:2:2C,2 G,, (3:2:2C,,2 C, (3:2:2D,2 E, | (3D,C,B,, (3:2:2=A,,2 C, (3:2:2F,,2 A,, | %49
 B,,2- (3:2:2B,,2 D, (3:2:2F,2 B, | E,2- (3:2:2E,2 F, (3:2:2E,2 D, | %51
 C,2- (3:2:2C,2 B,, (3:2:2=A,,2 G,, | (3:2:2F,,2 C, (3:2:2F,2 G, (3:2:2A,2 F, | %53
 (3:2:2B,2 G, (3:2:2E,2 C, (3:2:2F,2 F,, | (3B,,D,F, (3:2:2B,2 C, (3:2:2D,2 B,, | %55
 (3:2:2E,2 C, (3:2:2F,2 D, (3:2:2G,2 E, | (3:2:2A,2 F, (3:2:2B,2 E, (3:2:2F,2 F,, | %57
 B,,2 (3z F,D, B,, z | E,6- | (3:2:2E,2 E, (3:2:2F,2 E, (3:2:2F,2 A, | %60
 (3:2:2G,2 B, (3:2:2E2 A, (3:2:2B,2 B,, | (3:2:2E,2 B,, (3:2:2G,,2 E,, (3:2:2G,,2 B,, | %62
 (3E,D,C, (3:2:2=B,,2 D, (3:2:2G,,2 B,, | (3:2:2C,2 G,, (3:2:2C,,2 C, (3:2:2D,2 E, | %64
 (3D,C,B,, (3:2:2=A,,2 C, (3:2:2F,,2 A,, | B,,2- (3:2:2B,,2 D, (3:2:2F,2 B, | %66
 E,2- (3:2:2E,2 F, (3:2:2E,2 D, | C,2- (3:2:2C,2 B,, (3:2:2=A,,2 G,, | %68
 (3:2:2F,,2 C, (3:2:2F,2 G, (3:2:2A,2 F, | (3:2:2B,2 G, (3:2:2E,2 C, (3:2:2F,2 F,, | %70
 (3B,,D,F, (3:2:2B,2 C, (3:2:2D,2 B,, | (3:2:2E,2 C, (3:2:2F,2 D, (3:2:2G,2 E, | %72
 (3:2:2A,2 F, (3:2:2B,2 E, (3:2:2F,2 F,, | B,,2 (3z F,D, B,, z | %74
 (3B,,D,F, (3B,[I:staff -1]DF (3BAG | F2- (3FGA (3:2:2G2 F | %76
 (3:2:2F2[I:staff +1] C (3:2:2A,2 F, (3:2:2G,2 G,, | (3:2:2C,2 G,, (3:2:2E,,2 C,, (3:2:2E,,2 G,, | %78
 (3C,B,,G,, (3:2:2G,,2 B,, (3:2:2E,,2 G,, | A,,2- (3A,,B,,C, (3:2:2B,,2 A,, | %80
 (3:2:2G,,2 F,, (3=E,,F,,G,, (3C,,D,,E,, | F,,2- (3:2:2F,,2 F, (3:2:2=A,,2 F, | %82
 (3:2:2B,,2 C, (3:2:2_D,2 C, (3:2:2B,,2 A,, | (3:2:2G,,2 A, (3:2:2G,2 F, (3:2:2=E,2 C, | %84
 (3:2:2A,2 F, (3:2:2B,2 _D (3:2:2C2 C, | (3F,C,A,, (3:2:2F,,2 C, (3F,G,A, | %86
 B,2- (3B,F,D, (3B,,C,D, | E,2- (3E,B,,G,, (3E,,F,,G,, | A,,2- (3A,,G,,F,, (3A,,G,,F,, | %89
 (3:2:2B,,2 C (3:2:2B,2 A, (3:2:2G,2 F, | E,2- (3E,_D,C, (3B,,A,,G,, | %91
 (3:2:2A,,2 F,, (3:2:2B,,2 G,, (3:2:2C,2 A,, | (3:2:2A,,2 F,, (3:2:2B,,2 G,, (3:2:2C,2 A,, | %93
 E,2- (3E,B,,G,, E,, z | (3B,,D,F, (3B,[I:staff -1]DF (3BAG | F2- (3FGA (3:2:2G2 F | %96
 (3:2:2F2[I:staff +1] C (3:2:2A,2 F, (3:2:2G,2 G,, | (3:2:2C,2 G,, (3:2:2E,,2 C,, (3:2:2E,,2 G,, | %98
 (3C,B,,G,, (3:2:2G,,2 B,, (3:2:2E,,2 G,, | A,,2- (3A,,B,,C, (3:2:2B,,2 A,, | %100
 (3:2:2G,,2 F,, (3=E,,F,,G,, (3C,,D,,E,, | F,,2- (3:2:2F,,2 F, (3:2:2=A,,2 F, | %102
 (3:2:2B,,2 C, (3:2:2_D,2 C, (3:2:2B,,2 A,, | (3:2:2G,,2 A, (3:2:2G,2 F, (3:2:2=E,2 C, | %104
 (3:2:2A,2 F, (3:2:2B,2 _D (3:2:2C2 C, | (3F,C,A,, (3:2:2F,,2 C, (3F,G,A, | %106
 B,2- (3B,F,D, (3B,,C,D, | E,2- (3E,B,,G,, (3E,,F,,G,, | A,,2- (3A,,G,,F,, (3A,,G,,F,, | %109
 (3:2:2B,,2 C (3:2:2B,2 A, (3:2:2G,2 F, | E,2- (3E,_D,C, (3B,,A,,G,, | %111
 (3:2:2A,,2 F,, (3:2:2B,,2 G,, (3:2:2C,2 A,, | (3:2:2A,,2 F,, (3:2:2B,,2 G,, (3:2:2C,2 A,, | %113
 E,2- (3E,B,,G,, E,, z |[M:3/4] z6 | E,E _DC B,A, | G,F, E,_D, C,B,, | A,,B,,/C,/ !arpeggio!A,4 | %118
 B,,C,/D,/ !arpeggio!B,4 | E,F, E,D, C,B,, | =A,,G,, A,,F,, G,,A,, | B,,D, E,C, F,F,, | z2 z2 B,2 | %123
 E,E _DC B,A, | G,F, E,_D, C,B,, | A,,B,,/C,/ !arpeggio!A,4 | B,,C,/D,/ !arpeggio!B,4 | %127
 E,F, E,D, C,B,, | =A,,G,, A,,F,, G,,A,, | B,,D, E,C, F,F,, | z2 z2 B,2 | B,B,, C,D, E,F, | %132
 G,A, B,_D CB, | A,F, _DC B,D | C_D CB, A,G, | F,G,/A,/- A,4 | G,A,/B,/- B,4 | A,F, _DB, CC, | %138
 z2 z2 F2 | F,G,/A,/- A,4 | B,,E _DC B,A, | G,2 E,4 | A,A,, B,,C, D,E, | F,G, A,C B,A, | %144
 G,F, E,D, C,B,, | E,G, A,F, B,B,, | z2 z2 E2 | B,B,, C,D, E,F, | G,A, B,_D CB, | A,F, _DC B,D | %150
 C_D CB, A,G, | F,G,/A,/- A,4 | G,A,/B,/- B,4 | A,F, _DB, CC, | z2 z2 F2 | F,G,/A,/- A,4 | %156
 B,,E _DC B,A, | G,2 E,4 | A,A,, B,,C, D,E, | F,G, A,C B,A, | G,F, E,D, C,B,, | E,G, A,F, B,B,, | %162
 z2 z2 !fermata!E2 |[M:4/4] z8 | z4 EB,CA, | G,3 A, B,F,G,E, | D,2 B,,2 E,3 G, | A,2 F,2 B,A,G,F, | %168
 E,2 z2 EB,CA, | B,/4=A,/4B,/4A,/4B,/4A,/4B,/4A,/4 B,/4A,/4B,/4A,/4F, B,F,G,E, | %170
 D,2 B,,2 E,2 D,E, | F,2 F,,2 B,,A,,G,,F,, | E,,2 z2 EB,CA, | G,3 A, B,F,G,E, | D,2 B,,2 E,3 G, | %175
 A,2 F,2 B,A,G,F, | E,2 z2 EB,CA, | B,/4=A,/4B,/4A,/4B,/4A,/4B,/4A,/4 B,/4A,/4B,/4A,/4F, B,F,G,E, | %178
 D,2 B,,2 E,2 D,E, | F,2 F,,2 B,,4 | z4 F,C,D,B,, | B,3 D, E,=B,,C,G,, | A,,4- A,,2 A,2 | %183
 G,2 ^F,2 G,2 =F,2 | E,2 C,2 _D,A,G,B, | =E,2 C,2 F,C,D,=B,, | A,E,F,D, E,=B,,C,E, | %187
 G,2 G,,2 CG,A,F, | =E,2 C,2 F,G,A,F, | D,2 B,,2 E,F,G,E, | C,G,F,A, B,,F,E,G, | %191
 A,,E,_D,F, B,,F,,G,,E,, | A,,2 F,,2 B,,3 D, | E,G,B,B,, E,,4 | z4 F,C,D,B,, | B,3 D, E,=B,,C,G,, | %196
 A,,4- A,,2 A,2 | G,2 ^F,2 G,2 =F,2 | E,2 C,2 _D,A,G,B, | =E,2 C,2 F,C,D,=B,, | %200
 A,E,F,D, E,=B,,C,E, | G,2 G,,2 CG,A,F, | =E,2 C,2 F,G,A,F, | D,2 B,,2 E,F,G,E, | %204
 C,G,F,A, B,,F,E,G, | A,,E,_D,F, B,,F,,G,,E,, | A,,2 F,,2 B,,3 D, | E,G,B,B,, !fermata!E,,4 | %208
[M:3/4] z6 | E,F, G,2 E,2 | A,2 G,2 F,2 | E,B, E_D DC | CE B,E A,F | G,B, E2 D2 | C=A, F,2 B,2 | %215
 E,2 F,2 F,,2 | B,,F, B,A, G,F, | E,F, G,2 E,2 | A,2 G,2 F,2 | E,B, E_D DC | CE B,E A,F | %221
 G,B, E2 D2 | C=A, F,2 B,2 | E,2 F,2 F,,2 | B,,6 | B,,C, D,2 E,2 | B,,A, C,A, B,,A, | %227
 G,B, _D2 F,2 | =E,G, B,A, A,G, | F,2 F2 E2 | D2 B,2 E2 | G,C B,G, A,B, | E,A, G,E, F,G, | %233
 B,,C, D,2 E,2 | B,,A, C,A, B,,A, | G,B, _D2 F,2 | =E,G, B,A, A,G, | F,2 F2 E2 | D2 B,2 E2 | %239
 G,C B,G, A,B, | !fermata!E,6 |[M:4/4] z8 | E,,2 z2 z/ E,/D/C/ B,/A,/G,/F,/ | %243
 E,B,D,B, E,B,,G,,B,, | E,,E,C,E, F,,2 z2 | z F,D,F, G,,2 z2 | z E,G,B, C,B,=A,C | %247
 D,B,/=A,/ B,F, B,,/E,/D,/C,/ B,,/A,,/G,,/F,,/ | E,,2 z2 z/ E,/D/C/ B,/A,/G,/F,/ | %249
 E,B,D,B, E,B,,G,,B,, | E,,E,C,E, F,,2 z2 | z F,D,F, G,,2 z2 | z E,G,B, C,B,=A,C | %253
 D,B,/=A,/ B,F, B,,F, B,2 | B,,2 z2 E,/C,/D,/E,/ F,/G,/=A,/=B,/ | CA,F,A, G,2 z2 | %256
[I:staff -1] =EGEG[I:staff +1] F, z/[I:staff -1] B/ A/G/F/_E/ | %257
 DFDF[I:staff +1] E, z/[I:staff -1] A/ G/F/E/D/ | C/B/A/G/ F/E/D/C/ =B,/A/G/F/ E/D/C/_B,/ | %259
[I:staff +1] A,/G,/A,/F,/ G,G,, z/ C,/D,/E,/ F,/G,/=A,/=B,/ | CB,=A,G, A,/E,/F,/G,/ F,/E,/D,/C,/ | %261
 D,/C,/D,/E,/ D,/C,/B,,/=A,,/ B,,A,G,B, | E,_D,C,E, A,,A,G,E, | D,E,A,F, B,>C B,/A,/G,/F,/ | %264
 E,2 z2 z/ E,/D/C/ B,/A,/G,/F,/ | E,G,E,G, A,E,C,E, | A,,A,F,A, B,,2 z2 | z B,G,B, C,2 z2 | %268
 z A,CE F,EDF | G,E/D/ EB, E,B,, E,,2 | B,,2 z2 E,/C,/D,/E,/ F,/G,/=A,/=B,/ | CA,F,A, G,2 z2 | %272
[I:staff -1] =EGEG[I:staff +1] F, z/[I:staff -1] B/ A/G/F/_E/ | %273
 DFDF[I:staff +1] E, z/[I:staff -1] A/ G/F/E/D/ | C/B/A/G/ F/E/D/C/ =B,/A/G/F/ E/D/C/_B,/ | %275
[I:staff +1] A,/G,/A,/F,/ G,G,, z/ C,/D,/E,/ F,/G,/=A,/=B,/ | CB,=A,G, A,/E,/F,/G,/ F,/E,/D,/C,/ | %277
 D,/C,/D,/E,/ D,/C,/B,,/=A,,/ B,,A,G,B, | E,_D,C,E, A,,A,G,E, | D,E,A,F, B,>C B,/A,/G,/F,/ | %280
 E,2 z2 z/ E,/D/C/ B,/A,/G,/F,/ | E,G,E,G, A,E,C,E, | A,,A,F,A, B,,2 z2 | z B,G,B, C,2 z2 | %284
 z A,CE F,EDF | G,E/D/ EB, E,B,, !fermata!E,,2 |[M:6/8] z6 | z6 | z6 | z6 | z6 | B,2 E B,2 E | %292
 B,A,G, A,G,F, | G,F,E, G,F,E, | A,E,C A,E,C | F,E,D, F,E,D, | G,D,B, G,D,B, | E,D,C, E,D,C, | %298
 F,C,A, F,C,A, | D,C,B,, D,C,B,, | E,B,,G, E,B,,G, | C,2 G, C,2 G, | B,,=A,,G,, A,,G,,F,, | %303
 B,,2 B, F,2 B, | E,D,C, D,C,B,, | E,2 E C2 E | B,=A,G, A,G,F, | B,2 D, E,2 F, | B,,F,B, F,D,B, | %309
 F,G,/F,/E,/D,/ E,F,/E,/D,/C,/ | D,F,/E,/D,/C,/ D,F,/E,/D,/C,/ | D,B,,D, F,D,F, | B,6 | z6 | z6 | %315
 z6 | z6 | B,2 E B,2 E | B,A,G, A,G,F, | G,F,E, G,F,E, | A,E,C A,E,C | F,E,D, F,E,D, | %322
 G,D,B, G,D,B, | E,D,C, E,D,C, | F,C,A, F,C,A, | D,C,B,, D,C,B,, | E,B,,G, E,B,,G, | %327
 C,2 G, C,2 G, | B,,=A,,G,, A,,G,,F,, | B,,2 B, F,2 B, | E,D,C, D,C,B,, | E,2 E C2 E | %332
 B,=A,G, A,G,F, | B,2 D, E,2 F, | B,,F,B, F,D,B, | F,G,/F,/E,/D,/ E,F,/E,/D,/C,/ | %336
 D,F,/E,/D,/C,/ D,F,/E,/D,/C,/ | D,B,,D, F,D,F, | B,6 | z2 z4 | z2 z4 | B,2 E, B,2 E, | %342
 A,B,C B,C_D | C>DC/D/ E/4D/4E/4D/4E/4D/4E/4D/4 C/D/ | EGF EDC | DF,A, CB,A, | G,F,E, D,C,B,, | %347
 E,2 G E,2 G | A,=B,C A,B,C | D,2 F D,2 F | G,=B,D G,B,D | CC,C B,_DC | A,G,F, C2 C, | %353
 F,2 C, F,2 C, | G,=A,=B, A,B,C | =B,G,C F,D,G, | C,2 G,, C,2 G,, | C,D,E, D,E,F, | %358
 E,2 B,, E,2 B,, | F,G,A, G,A,B, | A,2 E, A,2 E, | B,CD CDE | DFE DCB, | E,E_D CB,A, | %364
 G,>A,G,/A,/ B,/4A,/4B,/4A,/4B,/4A,/4B,/4A,/4 G,/A,/ | B,2 z B,,2 z | E,2 B,, E,2 B,, | %367
 E,F,G, F,G,A, | G,E,F, G,A,B, | %369
 C/4B,/4C/4B,/4C/4B,/4C/4B,/4C/4B,/4C/4B,/4 C/4B,/4C/4B,/4C/4B,/4C/4B,/4C/4B,/4C/4B,/4 | %370
 C/4B,/4C/4B,/4C/4B,/4C/4B,/4 E B,2 E | B,C/B,/A,/G,/ A,B,/A,/G,/F,/ | E,B,,G,, E,,3 | z2 z4 | %374
 z2 z4 | B,2 E, B,2 E, | A,B,C B,C_D | C>DC/D/ E/4D/4E/4D/4E/4D/4E/4D/4 C/D/ | EGF EDC | %379
 DF,A, CB,A, | G,F,E, D,C,B,, | E,2 G E,2 G | A,=B,C A,B,C | D,2 F D,2 F | G,=B,D G,B,D | %385
 CC,C B,_DC | A,G,F, C2 C, | F,2 C, F,2 C, | G,=A,=B, A,B,C | =B,G,C F,D,G, | C,2 G,, C,2 G,, | %391
 C,D,E, D,E,F, | E,2 B,, E,2 B,, | F,G,A, G,A,B, | A,2 E, A,2 E, | B,CD CDE | DFE DCB, | %397
 E,E_D CB,A, | G,>A,G,/A,/ B,/4A,/4B,/4A,/4B,/4A,/4B,/4A,/4 G,/A,/ | B,2 z B,,2 z | %400
 E,2 B,, E,2 B,, | E,F,G, F,G,A, | G,E,F, G,A,B, | %403
 C/4B,/4C/4B,/4C/4B,/4C/4B,/4C/4B,/4C/4B,/4 C/4B,/4C/4B,/4C/4B,/4C/4B,/4C/4B,/4C/4B,/4 | %404
 C/4B,/4C/4B,/4C/4B,/4C/4B,/4 E B,2 E | B,C/B,/A,/G,/ A,B,/A,/G,/F,/ | E,B,,G,, !fermata!E,,3 |] %407
V:3
 x/ | E,,4 E,,4 | F,,4 G,,4 | A,,4 B,,4- | B,,8 | C,2 D,2 E,D,C,B,, | A,,2 B,,2 E,F,G,A, | x8 | %8
 x8 | x8 | z4 B,,7/2 z/ | E,,4 E,,4 | F,,4 G,,4 | A,,4 B,,4- | B,,8 | C,2 D,2 E,D,C,B,, | %16
 A,,2 B,,2 E,F,G,A, | x8 | x8 | x8 | z4 B,,7/2 x/ | x8 | x8 | x8 | x8 | x8 | x8 | x8 | x8 | x8 | %30
 z4 z G,- G,3/2 z/ | x8 | x8 | x8 | x8 | x8 | x8 | x8 | x8 | x8 | z4 z !fermata!G,- G,3/2 x/ | %41
[M:3/4] x6 | x6 | x6 | x6 | x6 | x6 | x6 | x6 | x6 | x6 | x6 | x6 | x6 | x6 | x6 | x6 | x6 | x6 | %59
 x6 | x6 | x6 | x6 | x6 | x6 | x6 | x6 | x6 | x6 | x6 | x6 | x6 | x6 | x6 | x6 | x6 | x6 | x6 | %78
 x6 | x6 | x6 | x6 | x6 | x6 | x6 | x6 | x6 | x6 | x6 | x6 | x6 | x6 | x6 | x6 | x6 | x6 | x6 | %97
 x6 | x6 | x6 | x6 | x6 | x6 | x6 | x6 | x6 | x6 | x6 | x6 | x6 | x6 | x6 | x6 | x6 |[M:3/4] x6 | %115
 x6 | x6 | z2 !arpeggio!E,4 | z2 !arpeggio!F,4 | x6 | x6 | x6 | z2 F,4 | x6 | x6 | %125
 z2 !arpeggio!E,4 | z2 !arpeggio!F,4 | x6 | x6 | x6 | z2 F,4 | x6 | x6 | x6 | x6 | z2 _D,4 | %136
 z2 B,,3 =E, | x6 | z2 C4 | D,2 B,,4 | z4 B,2- | B,C/_D/- D4 | x6 | x6 | x6 | x6 | z2 B,4 | x6 | %148
 x6 | x6 | x6 | z2 _D,4 | z2 B,,3 =E, | x6 | z2 C4 | D,2 B,,4 | z4 B,2- | B,C/_D/- D4 | x6 | x6 | %160
 x6 | x6 | z2 B,4 |[M:4/4] x8 | x8 | x8 | x8 | x8 | x8 | x8 | x8 | x8 | x8 | x8 | x8 | x8 | x8 | %177
 x8 | x8 | x8 | x8 | x8 | x8 | x8 | x8 | x8 | x8 | x8 | x8 | x8 | x8 | x8 | x8 | x8 | x8 | x8 | %196
 x8 | x8 | x8 | x8 | x8 | x8 | x8 | x8 | x8 | x8 | x8 | x8 |[M:3/4] x6 | x6 | x6 | x6 | x6 | x6 | %214
 x6 | x6 | x6 | x6 | x6 | x6 | x6 | x6 | x6 | x6 | x6 | x6 | x6 | x6 | x6 | x6 | x6 | x6 | x6 | %233
 x6 | x6 | x6 | x6 | x6 | x6 | x6 | x6 |[M:4/4] x8 | x8 | x8 | x8 | x8 | x8 | x8 | x8 | x8 | x8 | %251
 x8 | x8 | x8 | x8 | x8 | x8 | x8 | x8 | x8 | x8 | x8 | x8 | x8 | x8 | x8 | x8 | x8 | x8 | x8 | %270
 x8 | x8 | x8 | x8 | x8 | x8 | x8 | x8 | x8 | x8 | x8 | x8 | x8 | x8 | x8 | x8 |[M:6/8] x6 | x6 | %288
 x6 | x6 | x6 | x6 | x6 | x6 | x6 | x6 | x6 | x6 | x6 | x6 | x6 | x6 | x6 | x6 | x6 | x6 | x6 | %307
 x6 | x6 | x6 | x6 | x6 | x6 | x6 | x6 | x6 | x6 | x6 | x6 | x6 | x6 | x6 | x6 | x6 | x6 | x6 | %326
 x6 | x6 | x6 | x6 | x6 | x6 | x6 | x6 | x6 | x6 | x6 | x6 | x6 | x6 | x6 | x6 | x6 | x6 | x6 | %345
 x6 | x6 | x6 | x6 | x6 | x6 | x6 | x6 | x6 | x6 | x6 | x6 | x6 | x6 | x6 | x6 | x6 | x6 | x6 | %364
 x6 | x6 | x6 | x6 | x6 | x6 | x6 | x6 | x6 | x6 | x6 | x6 | x6 | x6 | x6 | x6 | x6 | x6 | x6 | %383
 x6 | x6 | x6 | x6 | x6 | x6 | x6 | x6 | x6 | x6 | x6 | x6 | x6 | x6 | x6 | x6 | x6 | x6 | x6 | %402
 x6 | x6 | x6 | x6 | x6 |] %407
V:4
 x/ | x8 | x8 | x8 | x8 | x8 | z/ G/A/F/ D2 z2 z/ B/c/A/ | F2- F/A/=B/G/ F/D/E z/ G/A/F/ | %8
 D2- D/F/G/_D/ C2 A2- | A/G/A/c/ f/c/d/A/ G2- G/=A/c/_G/ | F2- FE- E/C/D/F/- F3/2 z/ | x8 | x8 | %13
 x8 | x8 | x8 | z/ G/A/F/ D2 z2 z/ B/c/A/ | F2- F/A/=B/G/ F/D/E z/ G/A/F/ | D2- D/F/G/_D/ C2 A2- | %19
 A/G/A/c/ f/c/d/A/ G2- G/=A/c/_G/ | F2- FE- E/C/D/F/- F3/2 x/ | z2 B2 z2 G2 | z2 _G2 z2 F2 | %23
 A/F/G- G2- G/=B/c/G/- G2 | z/ C/E/G/ F2- F2 F/D/=B,/G,/ | =E4 F2 z2 | z2 F2 F/D/E/G/- G2 | %27
 z4 z A- A2 | z4 z F- F2 | z2 G2 A,2 z/ B3/2 | %30
 B,2 B,A, A,/[I:staff +1]F,/G,/B,/- B,3/2[I:staff -1] z/ | z2 B2 z2 G2 | z2 _G2 z2 F2 | %33
 A/F/G- G2- G/=B/c/G/- G2 | z/ C/E/G/ F2- F2 F/D/=B,/G,/ | =E4 F2 z2 | z2 F2 F/D/E/G/- G2 | %37
 z4 z A- A2 | z4 z F- F2 | z2 G2 A,2 z/ B3/2 | %40
 B,2 B,A, A,/[I:staff +1]F,/G,/!fermata!B,/- B,3/2 x/ |[M:3/4] x6 | %42
[I:staff -1] (3z z[I:staff +1] F, (3:2:2G,2 F, (3:2:2G,2 B, | A,2[I:staff -1] z2 z2 | x6 | x6 | %46
 x6 | x6 | x6 | x6 | x6 | x6 | x6 | x6 | x6 | x6 | x6 | x6 | %58
 (3z z[I:staff +1] F, (3:2:2G,2 F, (3:2:2G,2 B, | A,2[I:staff -1] z2 z2 | x6 | x6 | x6 | x6 | x6 | %65
 x6 | x6 | x6 | x6 | x6 | x6 | x6 | x6 | x6 | x6 | x6 | x6 | x6 | x6 | x6 | x6 | x6 | x6 | x6 | %84
 x6 | x6 | x6 | x6 | x6 | x6 | x6 | x6 | x6 | x6 | x6 | x6 | x6 | x6 | x6 | x6 | x6 | x6 | x6 | %103
 x6 | x6 | x6 | x6 | x6 | x6 | x6 | x6 | x6 | x6 | x6 |[M:3/4] x6 | G2 G4 | B2 !arpeggio!B4 | x6 | %118
 x6 | G2 F4 | z2 F3 E | D2 G/=A/B/e/ z2 | B2 D2 D2 | G2 G4 | B2 !arpeggio!B4 | x6 | x6 | G2 F4 | %128
 z2 F3 E | D2 G/=A/B/e/ z2 | B2 D2 D2 | d2 d4 | =e2 e4 | x6 | =e2 g4 | x6 | x6 | z4 ag | %138
 f/B/c/G/ A2- A2 | x6 | z2 g4 | x6 | x6 | z2 B2- B/c/d/e/ | z a B2- B/d/f/a/ | z2 c2 A2- | %146
 A/B/c/A/ G2- G2 | d2 d4 | =e2 e4 | x6 | =e2 g4 | x6 | x6 | z4 ag | f/B/c/G/ A2- A2 | x6 | z2 g4 | %157
 x6 | x6 | z2 B2- B/c/d/e/ | z a B2- B/d/f/a/ | z2 c2 A2- | A/B/c/A/ G2- G2 |[M:4/4] x8 | x8 | x8 | %166
 x8 | x8 | x8 | x8 | x8 | x8 | x8 | x8 | x8 | x8 | x8 | x8 | x8 | x8 | x8 | x8 | x8 | x8 | x8 | %185
 x8 | x8 | x8 | x8 | x8 | x8 | x4 E4 | z4 x4 | x8 | x8 | x8 | x8 | x8 | x8 | x8 | x8 | x8 | x8 | %203
 x8 | x8 | x4 E4 | z4 x4 | x8 |[M:3/4] x6 | x6 | x6 | x6 | x6 | x6 | x6 | x6 | x6 | x6 | x6 | x6 | %220
 x6 | x6 | x6 | x6 | x6 | x6 | x6 | x6 | x6 | x6 | x6 | x6 | x6 | x6 | x6 | x6 | x6 | x6 | x6 | %239
 x6 | x6 |[M:4/4] x8 | x8 | x8 | x8 | x8 | x8 | x8 | x8 | x8 | x8 | x8 | x8 | x8 | x8 | x8 | x8 | %257
 x8 | x8 | x8 | x8 | x8 | x8 | x8 | x8 | x8 | x8 | x8 | x8 | x8 | x8 | x8 | x8 | x8 | x8 | x8 | %276
 x8 | x8 | x8 | x8 | x8 | x8 | x8 | x8 | x8 | x8 |[M:6/8] x6 | B2 e B2 e | BAG AGF | GBA GFE | %290
 D2 B C2 =A | z B2 z B2 | z d2 z d2 | x6 | x6 | x6 | x6 | x6 | x6 | x6 | x6 | x6 | z2 c F3 | x6 | %304
 z2 f B3 | x6 | x6 | x6 | x6 | x6 | x6 | x6 | z DF B3 | B2 e B2 e | BAG AGF | GBA GFE | %316
 D2 B C2 =A | z B2 z B2 | z d2 z d2 | x6 | x6 | x6 | x6 | x6 | x6 | x6 | x6 | x6 | z2 c F3 | x6 | %330
 z2 f B3 | x6 | x6 | x6 | x6 | x6 | x6 | x6 | z DF B3 | x6 | x6 | x6 | x6 | x6 | x6 | x6 | x6 | %347
 x6 | x6 | x6 | x6 | G2[I:staff +1] C[I:staff -1] G2[I:staff +1] C |[I:staff -1] FGA GAB | A6- | %354
 AGF GFE | F2 E D3 | E3 z3 | x6 | x6 | x6 | x6 | x6 | x6 | x6 | x6 | x6 | x6 | x6 | x6 | x6 | x6 | %371
 x6 | x6 | x6 | x6 | x6 | x6 | x6 | x6 | x6 | x6 | x6 | x6 | x6 | x6 | %385
 G2[I:staff +1] C[I:staff -1] G2[I:staff +1] C |[I:staff -1] FGA GAB | A6- | AGF GFE | F2 E D3 | %390
 E3 z3 | x6 | x6 | x6 | x6 | x6 | x6 | x6 | x6 | x6 | x6 | x6 | x6 | x6 | x6 | x6 | x6 |] %407
V:5
 x/ | x8 | x8 | x8 | x8 | x8 | x8 | x8 | x8 | x8 | z4 z D- D3/2 z/ | x8 | x8 | x8 | x8 | x8 | x8 | %17
 x8 | x8 | x8 | z4 z D- D3/2 x/ | x8 | x8 | z4 z c- c2 | z4 c/=A/=B/d/- d2 | x8 | z4 z E- E2 | x8 | %28
 x8 | x8 | x8 | x8 | x8 | z4 z c- c2 | z4 c/=A/=B/d/- d2 | x8 | z4 z E- E2 | x8 | x8 | x8 | x8 | %41
[M:3/4] x6 | x6 | x6 | x6 | x6 | x6 | x6 | x6 | x6 | x6 | x6 | x6 | x6 | x6 | x6 | x6 | x6 | x6 | %59
 x6 | x6 | x6 | x6 | x6 | x6 | x6 | x6 | x6 | x6 | x6 | x6 | x6 | x6 | x6 | x6 | x6 | x6 | x6 | %78
 x6 | x6 | x6 | x6 | x6 | x6 | x6 | x6 | x6 | x6 | x6 | x6 | x6 | x6 | x6 | x6 | x6 | x6 | x6 | %97
 x6 | x6 | x6 | x6 | x6 | x6 | x6 | x6 | x6 | x6 | x6 | x6 | x6 | x6 | x6 | x6 | x6 |[M:3/4] x6 | %115
 x6 | x2 !arpeggio!G4 | x6 | x6 | x6 | x6 | x6 | z2 z F- F2 | x6 | z2 !arpeggio!G4 | x6 | x6 | x6 | %128
 x6 | x6 | z2 z F- F2 | x6 | x6 | x6 | z2 =e4 | x6 | x6 | x6 | z3 c- c2 | x6 | x6 | x6 | x6 | %143
 D2- D2 z2 | x6 | z2 z3/2 f/ z2 | z2 z B- B2 | x6 | x6 | x6 | z2 =e4 | x6 | x6 | x6 | z3 c- c2 | %155
 x6 | x6 | x6 | x6 | D2- D2 z2 | x6 | z2 z3/2 f/ z2 | z2 z B- B2 |[M:4/4] x8 | x8 | x8 | x8 | x8 | %168
 x8 | x8 | x8 | x8 | x8 | x8 | x8 | x8 | x8 | x8 | x8 | x8 | x8 | x8 | x8 | x8 | x8 | x8 | x8 | %187
 x8 | x8 | x8 | x8 | x8 | x8 | x8 | x8 | x8 | x8 | x8 | x8 | x8 | x8 | x8 | x8 | x8 | x8 | x8 | %206
 x8 | x8 |[M:3/4] x6 | x6 | x6 | x6 | x6 | x6 | x6 | x6 | x6 | x6 | x6 | x6 | x6 | x6 | x6 | x6 | %224
 x6 | x6 | x6 | x6 | x6 | x6 | x6 | x6 | x6 | x6 | x6 | x6 | x6 | x6 | x6 | x6 | x6 |[M:4/4] x8 | %242
 x8 | x8 | x8 | x8 | x8 | x8 | x8 | x8 | x8 | x8 | x8 | x8 | x8 | x8 | x8 | x8 | x8 | x8 | x8 | %261
 x8 | x8 | x8 | x8 | x8 | x8 | x8 | x8 | x8 | x8 | x8 | x8 | x8 | x8 | x8 | x8 | x8 | x8 | x8 | %280
 x8 | x8 | x8 | x8 | x8 | x8 |[M:6/8] x6 | x6 | x6 | x6 | x6 | x6 | x6 | x6 | x6 | x6 | x6 | x6 | %298
 x6 | x6 | x6 | x6 | x6 | x6 | x6 | x6 | x6 | x6 | x6 | x6 | x6 | x6 | x6 | x6 | x6 | x6 | x6 | %317
 x6 | x6 | x6 | x6 | x6 | x6 | x6 | x6 | x6 | x6 | x6 | x6 | x6 | x6 | x6 | x6 | x6 | x6 | x6 | %336
 x6 | x6 | x6 | x6 | x6 | x6 | x6 | x6 | x6 | x6 | x6 | x6 | x6 | x6 | x6 | x6 | x6 | x6 | x6 | %355
 x6 | x6 | x6 | x6 | x6 | x6 | x6 | x6 | x6 | x6 | x6 | x6 | x6 | x6 | x6 | x6 | x6 | x6 | x6 | %374
 x6 | x6 | x6 | x6 | x6 | x6 | x6 | x6 | x6 | x6 | x6 | x6 | x6 | x6 | x6 | x6 | x6 | x6 | x6 | %393
 x6 | x6 | x6 | x6 | x6 | x6 | x6 | x6 | x6 | x6 | x6 | x6 | x6 | x6 |] %407
V:6
 x/ | x8 | x8 | x8 | x8 | x8 | x8 | x8 | x8 | x8 | x8 | x8 | x8 | x8 | x8 | x8 | x8 | x8 | x8 | %19
 x8 | x8 | x8 | x8 | z6 E/=B,/C/G,/ | z4 z =B- B2 | x8 | z6 C2 | z6 E2 | z6 C2 | x8 | x8 | x8 | %32
 x8 | z6 E/=B,/C/G,/ | z4 z =B- B2 | x8 | z6 C2 | z6 E2 | z6 C2 | x8 | x8 |[M:3/4] x6 | x6 | x6 | %44
 x6 | x6 | x6 | x6 | x6 | x6 | x6 | x6 | x6 | x6 | x6 | x6 | x6 | x6 | x6 | x6 | x6 | x6 | x6 | %63
 x6 | x6 | x6 | x6 | x6 | x6 | x6 | x6 | x6 | x6 | x6 | x6 | x6 | x6 | x6 | x6 | x6 | x6 | x6 | %82
 x6 | x6 | x6 | x6 | x6 | x6 | x6 | x6 | x6 | x6 | x6 | x6 | x6 | x6 | x6 | x6 | x6 | x6 | x6 | %101
 x6 | x6 | x6 | x6 | x6 | x6 | x6 | x6 | x6 | x6 | x6 | x6 | x6 |[M:3/4] x6 | x6 | x6 | x6 | x6 | %119
 x6 | x6 | x6 | x6 | x6 | x6 | x6 | x6 | x6 | x6 | x6 | x6 | x6 | x6 | x6 | x6 | x6 | x6 | x6 | %138
 x6 | x6 | x6 | x6 | x6 | x6 | x6 | x6 | x6 | x6 | x6 | x6 | x6 | x6 | x6 | x6 | x6 | x6 | x6 | %157
 x6 | x6 | x6 | x6 | x6 | x6 |[M:4/4] x8 | x8 | x8 | x8 | x8 | x8 | x8 | x8 | x8 | x8 | x8 | x8 | %175
 x8 | x8 | x8 | x8 | x8 | x8 | x8 | x8 | x8 | x8 | x8 | x8 | x8 | x8 | x8 | x8 | x8 | x8 | x8 | %194
 x8 | x8 | x8 | x8 | x8 | x8 | x8 | x8 | x8 | x8 | x8 | x8 | x8 | x8 |[M:3/4] x6 | x6 | x6 | x6 | %212
 x6 | x6 | x6 | x6 | x6 | x6 | x6 | x6 | x6 | x6 | x6 | x6 | x6 | x6 | x6 | x6 | x6 | x6 | x6 | %231
 x6 | x6 | x6 | x6 | x6 | x6 | x6 | x6 | x6 | x6 |[M:4/4] x8 | x8 | x8 | x8 | x8 | x8 | x8 | x8 | %249
 x8 | x8 | x8 | x8 | x8 | x8 | x8 | x8 | x8 | x8 | x8 | x8 | x8 | x8 | x8 | x8 | x8 | x8 | x8 | %268
 x8 | x8 | x8 | x8 | x8 | x8 | x8 | x8 | x8 | x8 | x8 | x8 | x8 | x8 | x8 | x8 | x8 | x8 | %286
[M:6/8] x6 | x6 | x6 | x6 | x6 | x6 | x6 | x6 | x6 | x6 | x6 | x6 | x6 | x6 | x6 | x6 | x6 | x6 | %304
 x6 | x6 | x6 | x6 | x6 | x6 | x6 | x6 | x6 | x6 | x6 | x6 | x6 | x6 | x6 | x6 | x6 | x6 | x6 | %323
 x6 | x6 | x6 | x6 | x6 | x6 | x6 | x6 | x6 | x6 | x6 | x6 | x6 | x6 | x6 | x6 | x6 | x6 | x6 | %342
 x6 | x6 | x6 | x6 | x6 | x6 | x6 | x6 | x6 | x6 | x6 | x6 | x6 | x6 | x6 | x6 | x6 | x6 | x6 | %361
 x6 | x6 | x6 | x6 | x6 | x6 | x6 | x6 | x6 | x6 | x6 | x6 | x6 | x6 | x6 | x6 | x6 | x6 | x6 | %380
 x6 | x6 | x6 | x6 | x6 | x6 | x6 | x6 | x6 | x6 | x6 | x6 | x6 | x6 | x6 | x6 | x6 | x6 | x6 | %399
 x6 | x6 | x6 | x6 | x6 | x6 | x6 | x6 |] %407
V:7
 x/ | x8 | x8 | x8 | x8 | x8 | x8 | x8 | x8 | x8 | x8 | x8 | x8 | x8 | x8 | x8 | x8 | x8 | x8 | %19
 x8 | x8 | x8 | x8 | x8 | x8 | x8 | x8 | x8 | x8 | x8 | z6 E,3/2 z/ | x8 | x8 | x8 | x8 | x8 | x8 | %37
 x8 | x8 | x8 | z6 !fermata!E,3/2 x/ |[M:3/4] x6 | x6 | x6 | x6 | x6 | x6 | x6 | x6 | x6 | x6 | %51
 x6 | x6 | x6 | x6 | x6 | x6 | x6 | x6 | x6 | x6 | x6 | x6 | x6 | x6 | x6 | x6 | x6 | x6 | x6 | %70
 x6 | x6 | x6 | x6 | x6 | x6 | x6 | x6 | x6 | x6 | x6 | x6 | x6 | x6 | x6 | x6 | x6 | x6 | x6 | %89
 x6 | x6 | x6 | x6 | x6 | x6 | x6 | x6 | x6 | x6 | x6 | x6 | x6 | x6 | x6 | x6 | x6 | x6 | x6 | %108
 x6 | x6 | x6 | x6 | x6 | x6 |[M:3/4] x6 | x6 | x6 | x6 | x6 | x6 | x6 | x6 | x6 | x6 | x6 | x6 | %126
 x6 | x6 | x6 | x6 | x6 | x6 | x6 | x6 | x6 | x6 | x6 | x6 | x6 | x6 | x6 | x6 | x6 | x6 | x6 | %145
 x6 | x6 | x6 | x6 | x6 | x6 | x6 | x6 | x6 | x6 | x6 | x6 | x6 | x6 | x6 | x6 | x6 | x6 | %163
[M:4/4] x8 | x8 | x8 | x8 | x8 | x8 | x8 | x8 | x8 | x8 | x8 | x8 | x8 | x8 | x8 | x8 | x8 | x8 | %181
 x8 | x8 | x8 | x8 | x8 | x8 | x8 | x8 | x8 | x8 | x8 | x8 | x8 | x8 | x8 | x8 | x8 | x8 | x8 | %200
 x8 | x8 | x8 | x8 | x8 | x8 | x8 | x8 |[M:3/4] x6 | x6 | x6 | x6 | x6 | x6 | x6 | x6 | x6 | x6 | %218
 x6 | x6 | x6 | x6 | x6 | x6 | x6 | x6 | x6 | x6 | x6 | x6 | x6 | x6 | x6 | x6 | x6 | x6 | x6 | %237
 x6 | x6 | x6 | x6 |[M:4/4] x8 | x8 | x8 | x8 | x8 | x8 | x8 | x8 | x8 | x8 | x8 | x8 | x8 | x8 | %255
 x8 | x8 | x8 | x8 | x8 | x8 | x8 | x8 | x8 | x8 | x8 | x8 | x8 | x8 | x8 | x8 | x8 | x8 | x8 | %274
 x8 | x8 | x8 | x8 | x8 | x8 | x8 | x8 | x8 | x8 | x8 | x8 |[M:6/8] x6 | x6 | x6 | x6 | x6 | x6 | %292
 x6 | x6 | x6 | x6 | x6 | x6 | x6 | x6 | x6 | x6 | x6 | x6 | x6 | x6 | x6 | x6 | x6 | x6 | x6 | %311
 x6 | x6 | x6 | x6 | x6 | x6 | x6 | x6 | x6 | x6 | x6 | x6 | x6 | x6 | x6 | x6 | x6 | x6 | x6 | %330
 x6 | x6 | x6 | x6 | x6 | x6 | x6 | x6 | x6 | x6 | x6 | x6 | x6 | x6 | x6 | x6 | x6 | x6 | x6 | %349
 x6 | x6 | x6 | x6 | x6 | x6 | x6 | x6 | x6 | x6 | x6 | x6 | x6 | x6 | x6 | x6 | x6 | x6 | x6 | %368
 x6 | x6 | x6 | x6 | x6 | x6 | x6 | x6 | x6 | x6 | x6 | x6 | x6 | x6 | x6 | x6 | x6 | x6 | x6 | %387
 x6 | x6 | x6 | x6 | x6 | x6 | x6 | x6 | x6 | x6 | x6 | x6 | x6 | x6 | x6 | x6 | x6 | x6 | x6 | %406
 x6 |] %407
V:8
 x/ | x8 | x8 | x8 | x8 | x8 | x8 | x8 | x8 | x8 | x8 | x8 | x8 | x8 | x8 | x8 | x8 | x8 | x8 | %19
 x8 | x8 | x8 | x8 | x8 | x8 | x8 | x8 | x8 | x8 | x8 | x8 | x8 | x8 | x8 | x8 | x8 | x8 | x8 | %38
 x8 | x8 | x8 |[M:3/4] x6 | x6 | x6 | x6 | x6 | x6 | x6 | x6 | x6 | x6 | x6 | x6 | x6 | x6 | x6 | %56
 x6 | x6 | x6 | x6 | x6 | x6 | x6 | x6 | x6 | x6 | x6 | x6 | x6 | x6 | x6 | x6 | x6 | x6 | x6 | %75
 x6 | x6 | x6 | x6 | x6 | x6 | x6 | x6 | x6 | x6 | x6 | x6 | x6 | x6 | x6 | x6 | x6 | x6 | x6 | %94
 x6 | x6 | x6 | x6 | x6 | x6 | x6 | x6 | x6 | x6 | x6 | x6 | x6 | x6 | x6 | x6 | x6 | x6 | x6 | %113
 x6 |[M:3/4] x6 | x6 | x6 | z2 !arpeggio!C,4 | z2 !arpeggio!D,4 | x6 | x6 | x6 | B,,6 | x6 | x6 | %125
 z2 !arpeggio!C,4 | z2 !arpeggio!D,4 | x6 | x6 | x6 | B,,6 | x6 | x6 | x6 | x6 | x6 | x6 | x6 | %138
 F,4- F,E, | x6 | x6 | x6 | x6 | x6 | x6 | x6 | E,6 | x6 | x6 | x6 | x6 | x6 | x6 | x6 | %154
 F,4- F,E, | x6 | x6 | x6 | x6 | x6 | x6 | x6 | E,6 |[M:4/4] x8 | x8 | x8 | x8 | x8 | x8 | x8 | %170
 x8 | x8 | x8 | x8 | x8 | x8 | x8 | x8 | x8 | x8 | x8 | x8 | x8 | x8 | x8 | x8 | x8 | x8 | x8 | %189
 x8 | x8 | x8 | x8 | x8 | x8 | x8 | x8 | x8 | x8 | x8 | x8 | x8 | x8 | x8 | x8 | x8 | x8 | x8 | %208
[M:3/4] x6 | x6 | x6 | x6 | x6 | x6 | x6 | x6 | x6 | x6 | x6 | x6 | x6 | x6 | x6 | x6 | x6 | x6 | %226
 x6 | x6 | x6 | x6 | x6 | x6 | x6 | x6 | x6 | x6 | x6 | x6 | x6 | x6 | x6 |[M:4/4] x8 | x8 | x8 | %244
 x8 | x8 | x8 | x8 | x8 | x8 | x8 | x8 | x8 | x8 | x8 | x8 | x8 | x8 | x8 | x8 | x8 | x8 | x8 | %263
 x8 | x8 | x8 | x8 | x8 | x8 | x8 | x8 | x8 | x8 | x8 | x8 | x8 | x8 | x8 | x8 | x8 | x8 | x8 | %282
 x8 | x8 | x8 | x8 |[M:6/8] x6 | x6 | x6 | x6 | x6 | x6 | x6 | x6 | x6 | x6 | x6 | x6 | x6 | x6 | %300
 x6 | x6 | x6 | x6 | x6 | x6 | x6 | x6 | x6 | x6 | x6 | x6 | x6 | x6 | x6 | x6 | x6 | x6 | x6 | %319
 x6 | x6 | x6 | x6 | x6 | x6 | x6 | x6 | x6 | x6 | x6 | x6 | x6 | x6 | x6 | x6 | x6 | x6 | x6 | %338
 x6 | x6 | x6 | x6 | x6 | x6 | x6 | x6 | x6 | x6 | x6 | x6 | x6 | x6 | x6 | x6 | x6 | x6 | x6 | %357
 x6 | x6 | x6 | x6 | x6 | x6 | x6 | x6 | x6 | x6 | x6 | x6 | x6 | x6 | x6 | x6 | x6 | x6 | x6 | %376
 x6 | x6 | x6 | x6 | x6 | x6 | x6 | x6 | x6 | x6 | x6 | x6 | x6 | x6 | x6 | x6 | x6 | x6 | x6 | %395
 x6 | x6 | x6 | x6 | x6 | x6 | x6 | x6 | x6 | x6 | x6 | x6 |] %407

